data/pieces/fancy/whiteKing.svg

<svg xmlns="http://www.w3.org/2000/svg" width="1000pt" height="1000pt" viewBox="0 0 1000 1000"><path d="M106 432c0-80 73-150 153-150 63 0 97 11 155 44l4-4V122c0-22 4-26 26-26h112c22 0 26 4 26 26v200l4 4c58-33 92-44 155-44 80 0 153 70 153 150 0 70-24 104-54 142-28 35-39 54-49 81 6 9 9 17 9 29 0 13-3 23-7 33-5 11-9 24-9 34 0 8 0 13 1 20l11 71c-96 36-200 50-296 50s-200-14-296-50l11-71c1-7 1-12 1-20 0-10-4-23-9-34-4-10-7-20-7-33 0-12 3-20 9-29-10-27-20-44-48-79-32-40-55-69-55-144" style="stroke-width:2;stroke-linecap:butt;stroke-linejoin:miter;stroke:#fff;stroke-opacity:1;stroke-miterlimit:10;fill-rule:nonzero;fill:#fff;fill-opacity:1"/><path d="M106 432c0-80 73-150 153-150 63 0 97 11 155 44l4-4V122c0-22 4-26 26-26h112c22 0 26 4 26 26v200l4 4c58-33 92-44 155-44 80 0 153 70 153 150 0 70-24 104-54 142-28 35-39 54-49 81 6 9 9 17 9 29 0 13-3 23-7 33-5 11-9 24-9 34 0 8 0 13 1 20l11 71c-96 36-200 50-296 50s-200-14-296-50l11-71c1-7 1-12 1-20 0-10-4-23-9-34-4-10-7-20-7-33 0-12 3-20 9-29-10-27-20-44-48-79-32-40-55-69-55-144m18 4c0 54 20 94 50 130 17 21 35 48 48 77l14-7c-12-26-29-54-45-74-31-38-47-73-47-124 0-69 66-118 134-118 57 0 91 15 137 48l9-14c-46-31-90-52-155-52-73 0-145 57-145 134m38 2c0 34 9 60 27 85 10-7 26-11 37-11 14 0 21 1 32 7 4-32 20-64 37-82 18 13 41 36 53 67 12-9 25-14 47-14 29 0 69 21 87 70l5-2c-31-165-109-218-206-218-69 0-119 50-119 98m37 102c12 22 28 43 46 57 11 9 24 17 32 17 7 0 10-5 10-10 0-9-8-30-19-46-10-14-23-26-40-26-10 0-19 1-29 8m25 155c0 10 5 15 18 15 3 0 9-1 16-4 59-23 144-40 242-40s183 17 242 40c7 3 13 4 16 4 13 0 18-5 18-15 0-37-153-67-276-67s-276 30-276 67m2 129c15 5 32 10 50 15 84-31 137-39 224-39s140 8 224 39c18-5 35-10 50-15-97-44-165-55-274-55s-177 11-274 55m11-44c13 4 18 4 29 4 28 0 114-38 114-59 0-11-40-14-73-14-13 0-47 10-67 22 0 18 0 29-3 47m41-252c0 31 19 75 35 75 11 0 15-42 15-65s-10-52-30-65c-14 16-20 40-20 55m25 317c63 14 136 23 197 23s134-9 197-23c-73-22-119-29-197-29s-124 7-197 29m34-257c0 5 5 9 11 9 11 0 21-8 33-20 10-10 34-42 39-57-6-6-18-10-30-10-20 0-32 11-42 28-8 14-11 36-11 50m75-10c0 18 11 26 25 26s26-14 26-31c0-12-13-34-27-42-12 13-24 35-24 47m10 144c0 16 56 35 78 35s78-19 78-35-56-37-78-37-78 21-78 37m5-341c13 10 23 23 32 39h3c5-16 20-25 38-25s33 9 38 25h3c9-16 19-29 32-39l-11-15c-14 11-32 20-62 20s-48-9-62-20zm5-107c0 4 0 7 4 7 3 0 5-1 8-4 23-25 45-27 56-27s33 2 56 27c3 3 5 4 8 4 4 0 4-3 4-7v-42H432zm0-66 52-44-52-44zm14 112c0 30 24 54 54 54s54-24 54-54-24-54-54-54-54 24-54 54m7-104h93l-46-39zm0-104 47 39 46-39zm23 480c0 12 12 20 24 20s24-8 24-20-12-20-24-20-24 8-24 20m2-148c0 18 8 40 20 68h4c12-28 20-50 20-68 0-16-7-30-22-30s-22 14-22 30m35 114 5 2c18-49 58-70 87-70 22 0 35 5 47 14 12-31 35-54 53-67 17 18 33 50 37 82 11-6 18-7 32-7 11 0 27 4 37 11 18-25 27-51 27-85 0-48-50-98-119-98-97 0-175 53-206 218m2-394 52 44v-88zm22 409c0 17 12 31 26 31s25-8 25-26c0-12-12-34-24-47-14 8-27 30-27 42m39-219 9 14c46-33 80-48 137-48 68 0 134 49 134 118 0 51-16 86-47 124-16 20-33 48-45 74l14 7c13-29 31-56 48-77 30-36 50-76 50-130 0-77-72-134-145-134-65 0-109 21-155 52m4 166c5 15 29 47 39 57 12 12 22 20 33 20 6 0 11-4 11-9 0-14-3-36-11-50-10-17-22-28-42-28-12 0-24 4-30 10m40 205c0 21 86 59 114 59 11 0 16 0 29-4-3-18-3-29-3-47-20-12-54-22-67-22-33 0-73 3-73 14m52-187c0 23 4 65 15 65 16 0 35-44 35-75 0-15-6-39-20-55-20 13-30 42-30 65m41 66c0 5 3 10 10 10 8 0 21-8 32-17 18-14 34-35 46-57-10-7-19-8-29-8-17 0-30 12-40 26-11 16-19 37-19 46" style="stroke:none;fill-rule:nonzero;fill:#000;fill-opacity:1"/></svg>

<?xml version="1.0" encoding="UTF-8"?>
<!--
	(c) 2010 Alexey Kryukov

    This work is free; you can redistribute it and/or modify
    it under the terms of the GNU General Public License as published by
    the Free Software Foundation; either version 2 of the License, or
    (at your option) any later version.

    This work is distributed in the hope that it will be useful,
    but WITHOUT ANY WARRANTY; without even the implied warranty of
    MERCHANTABILITY or FITNESS FOR A PARTICULAR PURPOSE.  See the
    GNU General Public License for more details.

    You should have received a copy of the GNU General Public License
    along with this program; if not, write to the Free Software
    Foundation, Inc., 51 Franklin Street, Fifth Floor, Boston, MA 02110-1301 USA
-->
<svg xmlns="http://www.w3.org/2000/svg" xmlns:xlink="http://www.w3.org/1999/xlink" width="1000pt" height="1000pt" viewBox="0 0 1000 1000" version="1.1">
<g id="surface0">
<path style="stroke-width:2;stroke-linecap:butt;stroke-linejoin:miter;stroke:white;stroke-opacity:1;stroke-miterlimit:10;fill-rule:nonzero;fill:white;fill-opacity:1;" d="M 106 432 C 106 352 179 282 259 282 C 322 282 356 293 414 326 L 418 322 L 418 122 C 418 100 422 96 444 96 L 556 96 C 578 96 582 100 582 122 L 582 322 L 586 326 C 644 293 678 282 741 282 C 821 282 894 352 894 432 C 894 502 870 536 840 574 C 812 609 801 628 791 655 C 797 664 800 672 800 684 C 800 697 797 707 793 717 C 788 728 784 741 784 751 C 784 759 784 764 785 771 L 796 842 C 700 878 596 892 500 892 C 404 892 300 878 204 842 L 215 771 C 216 764 216 759 216 751 C 216 741 212 728 207 717 C 203 707 200 697 200 684 C 200 672 203 664 209 655 C 199 628 189 611 161 576 C 129 536 106 507 106 432 "/>
<path style="stroke:none;fill-rule:nonzero;fill:black;fill-opacity:1;" d="M 106 432 C 106 352 179 282 259 282 C 322 282 356 293 414 326 L 418 322 L 418 122 C 418 100 422 96 444 96 L 556 96 C 578 96 582 100 582 122 L 582 322 L 586 326 C 644 293 678 282 741 282 C 821 282 894 352 894 432 C 894 502 870 536 840 574 C 812 609 801 628 791 655 C 797 664 800 672 800 684 C 800 697 797 707 793 717 C 788 728 784 741 784 751 C 784 759 784 764 785 771 L 796 842 C 700 878 596 892 500 892 C 404 892 300 878 204 842 L 215 771 C 216 764 216 759 216 751 C 216 741 212 728 207 717 C 203 707 200 697 200 684 C 200 672 203 664 209 655 C 199 628 189 611 161 576 C 129 536 106 507 106 432 M 124 436 C 124 490 144 530 174 566 C 191 587 209 614 222 643 L 236 636 C 224 610 207 582 191 562 C 160 524 144 489 144 438 C 144 369 210 320 278 320 C 335 320 369 335 415 368 L 424 354 C 378 323 334 302 269 302 C 196 302 124 359 124 436 M 162 438 C 162 472 171 498 189 523 C 199 516 215 512 226 512 C 240 512 247 513 258 519 C 262 487 278 455 295 437 C 313 450 336 473 348 504 C 360 495 373 490 395 490 C 424 490 464 511 482 560 L 487 558 C 456 393 378 340 281 340 C 212 340 162 390 162 438 M 199 540 C 211 562 227 583 245 597 C 256 606 269 614 277 614 C 284 614 287 609 287 604 C 287 595 279 574 268 558 C 258 544 245 532 228 532 C 218 532 209 533 199 540 M 224 695 C 224 705 229 710 242 710 C 245 710 251 709 258 706 C 317 683 402 666 500 666 C 598 666 683 683 742 706 C 749 709 755 710 758 710 C 771 710 776 705 776 695 C 776 658 623 628 500 628 C 377 628 224 658 224 695 M 226 824 C 241 829 258 834 276 839 C 360 808 413 800 500 800 C 587 800 640 808 724 839 C 742 834 759 829 774 824 C 677 780 609 769 500 769 C 391 769 323 780 226 824 M 237 780 C 250 784 255 784 266 784 C 294 784 380 746 380 725 C 380 714 340 711 307 711 C 294 711 260 721 240 733 C 240 751 240 762 237 780 M 278 528 C 278 559 297 603 313 603 C 324 603 328 561 328 538 C 328 515 318 486 298 473 C 284 489 278 513 278 528 M 303 845 C 366 859 439 868 500 868 C 561 868 634 859 697 845 C 624 823 578 816 500 816 C 422 816 376 823 303 845 M 337 588 C 337 593 342 597 348 597 C 359 597 369 589 381 577 C 391 567 415 535 420 520 C 414 514 402 510 390 510 C 370 510 358 521 348 538 C 340 552 337 574 337 588 M 412 578 C 412 596 423 604 437 604 C 451 604 463 590 463 573 C 463 561 450 539 436 531 C 424 544 412 566 412 578 M 422 722 C 422 738 478 757 500 757 C 522 757 578 738 578 722 C 578 706 522 685 500 685 C 478 685 422 706 422 722 M 427 381 C 440 391 450 404 459 420 L 462 420 C 467 404 482 395 500 395 C 518 395 533 404 538 420 L 541 420 C 550 404 560 391 573 381 L 562 366 C 548 377 530 386 500 386 C 470 386 452 377 438 366 L 427 381 M 432 274 C 432 278 432 281 436 281 C 439 281 441 280 444 277 C 467 252 489 250 500 250 C 511 250 533 252 556 277 C 559 280 561 281 564 281 C 568 281 568 278 568 274 L 568 232 L 432 232 L 432 274 M 432 208 L 484 164 L 432 120 L 432 208 M 446 320 C 446 350 470 374 500 374 C 530 374 554 350 554 320 C 554 290 530 266 500 266 C 470 266 446 290 446 320 M 453 216 L 546 216 L 500 177 L 453 216 M 453 112 L 500 151 L 546 112 L 453 112 M 476 592 C 476 604 488 612 500 612 C 512 612 524 604 524 592 C 524 580 512 572 500 572 C 488 572 476 580 476 592 M 478 444 C 478 462 486 484 498 512 L 502 512 C 514 484 522 462 522 444 C 522 428 515 414 500 414 C 485 414 478 428 478 444 M 513 558 L 518 560 C 536 511 576 490 605 490 C 627 490 640 495 652 504 C 664 473 687 450 705 437 C 722 455 738 487 742 519 C 753 513 760 512 774 512 C 785 512 801 516 811 523 C 829 498 838 472 838 438 C 838 390 788 340 719 340 C 622 340 544 393 513 558 M 515 164 L 567 208 L 567 120 L 515 164 M 537 573 C 537 590 549 604 563 604 C 577 604 588 596 588 578 C 588 566 576 544 564 531 C 550 539 537 561 537 573 M 576 354 L 585 368 C 631 335 665 320 722 320 C 790 320 856 369 856 438 C 856 489 840 524 809 562 C 793 582 776 610 764 636 L 778 643 C 791 614 809 587 826 566 C 856 530 876 490 876 436 C 876 359 804 302 731 302 C 666 302 622 323 576 354 M 580 520 C 585 535 609 567 619 577 C 631 589 641 597 652 597 C 658 597 663 593 663 588 C 663 574 660 552 652 538 C 642 521 630 510 610 510 C 598 510 586 514 580 520 M 620 725 C 620 746 706 784 734 784 C 745 784 750 784 763 780 C 760 762 760 751 760 733 C 740 721 706 711 693 711 C 660 711 620 714 620 725 M 672 538 C 672 561 676 603 687 603 C 703 603 722 559 722 528 C 722 513 716 489 702 473 C 682 486 672 515 672 538 M 713 604 C 713 609 716 614 723 614 C 731 614 744 606 755 597 C 773 583 789 562 801 540 C 791 533 782 532 772 532 C 755 532 742 544 732 558 C 721 574 713 595 713 604 "/>
</g>
</svg>
